!!!COM: Palestrina, Giovanni Perluigi da
!!!OPR: Missa Sine nomine (1599)
!!!OMD: Credo
!!!OTL: Et in Spiritum
**kern	**kern	**kern	**kern	**kern
*Ibass	*Itenor	*Icalto	*Icalto	*Icant
!Bassus	!Tenor	!Altus 2	!Altus 1	!Cantus
*clefF4	*clefGv2	*clefG2	*clefG2	*clefG2
*k[]	*k[]	*k[]	*k[]	*k[]
*A:aeo	*A:aeo	*A:aeo	*A:aeo	*A:aeo
*M4/2	*M4/2	*M4/2	*M4/2	*M4/2
=170	=170	=170	=170	=170
0r	0r	1a	1cc	2r
.	.	.	.	1ee
.	.	2g	2b	.
.	.	[2f	[2a	2dd
=171	=171	=171	=171	=171
0r	0r	2f]	2a]	1.cc
.	.	2e	2g	.
.	.	2f	2a	.
.	.	2d	2f	2b
=172	=172	=172	=172	=172
0r	0r	2c	2e	1cc
.	.	1f	2.a	.
.	.	.	.	2.cc
.	.	.	4b	.
.	.	2a	[2cc	.
.	.	.	.	4cc
=173	=173	=173	=173	=173
0r	1r	1g	2cc]	2dd
.	.	.	2b	2dd
.	1e	1c	1cc	2ee
.	.	.	.	2gg
=174	=174	=174	=174	=174
0r	2d	1a	0r	2ff
.	1c	.	.	1ee
.	.	2g	.	.
.	2B	[2g	.	2dd
=175	=175	=175	=175	=175
2r	2c	2g]	0r	2ee
1c	2A	2f	.	4cc
.	.	.	.	4dd
.	1G	2g	.	4ee
.	.	.	.	8dd
.	.	.	.	8cc
2B	.	2d	.	2dd
=176	=176	=176	=176	=176
1A	2.c	2f	2r	1cc
.	.	2.e	2cc	.
.	4d	.	.	.
2G#	1e	.	2b	1r
.	.	4d	.	.
2A	.	4c	[2a	.
.	.	4B	.	.
=177	=177	=177	=177	=177
2F	2d	2A	2a]	2r
1E	1e	2c	2g#	2.ee
.	.	2B	2g#	.
.	.	.	.	4dd
[2A	2r	[2c	[2a	4cc
.	.	.	.	4b
=178	=178	=178	=178	=178
4A]	0r	4c]	2a]	1cc
4B	.	4B	.	.
1c	.	2A	2e	.
.	.	1G	2.g	1dd
2B	.	.	.	.
.	.	.	4g	.
=179	=179	=179	=179	=179
1c	2r	2r	1g	2ee
.	1c	1g	.	1ee
1r	.	.	1r	.
.	2e	2g	.	2gg
=180	=180	=180	=180	=180
0r	2d	2a	1r	2ff
.	2c	2.cc	.	2ee
.	1f	.	1a	2cc
.	.	4b	.	.
.	.	[2a	.	2dd
=181	=181	=181	=181	=181
1A	2e	2a]	2.cc	1ee
.	2r	4g	.	.
.	.	4f	4b	.
2c	1r	2e	2a	1r
2B	.	2d	2g	.
=182	=182	=182	=182	=182
2A	1r	2c	2a	2r
1d	.	2d	2f	1a
.	2r	1A	[1e	.
2c	[2A	.	.	2a
=183	=183	=183	=183	=183
0r	2A]	2r	1e]	2.cc
.	2A	1a	.	.
.	.	.	.	4dd
.	2c	.	2r	2ee
.	2d	2a	[2a	2ff
=184	=184	=184	=184	=184
1r	2e	2cc	2a]	1ee
.	2e	2b	2g	.
1F	1f	2a	2cc	2r
.	.	2f	2cc	2a
=185	=185	=185	=185	=185
2F	2f	1cc	2a	2a
2A	2e	.	2a	2cc
2B	2d	2b	2.g	2dd
2c	[2c	2e	.	2ee
.	.	.	4f	.
=186	=186	=186	=186	=186
2c	2c]	2g	2e	2ee
1d	2r	4f	2d	1ff
.	.	4e	.	.
.	1r	4d	4f	.
.	.	4e	4g	.
2d	.	2f	4a	2ff
.	.	.	4b	.
=187	=187	=187	=187	=187
2c	1r	4g	2cc	2ee
.	.	4f	.	.
2B	.	4e	2g	1dd
.	.	4d	.	.
1A	2r	2e	2a	.
.	[2A	[2a	2e	[2cc
=188	=188	=188	=188	=188
0r	2A]	2a]	2f	2cc]
.	2B	4g	2.g	4b
.	.	4f	.	4a
.	1c	1e	.	1g
.	.	.	4g	.
.	.	.	2e	.
=189	=189	=189	=189	=189
1r	2A	1r	2f	1r
.	2B	.	2g	.
1F	2c	2r	1a	2r
.	2d	2a	.	2dd
=190	=190	=190	=190	=190
2G	1e	2g	1r	2b
1A	.	2.e	.	1cc
.	1A	.	1a	.
.	.	4e	.	.
2F	.	2f	.	2a
=191	=191	=191	=191	=191
2G	0r	2d	2g	2b
2A	.	2c	4f	2cc
.	.	.	4e	.
2B	.	2.g	2d	2dd
[2c	.	.	2c	[2ee
.	.	4f	.	.
=192	=192	=192	=192	=192
2c]	0r	2e	2g	2ee]
1F	.	1f	1a	1cc
2r	.	2e	2g	2cc
=193	=193	=193	=193	=193
0r	0r	2d	1.a	2dd
.	.	2c#	.	2ee
.	.	1d	.	1ff
.	.	.	2b	.
=194	=194	=194	=194	=194
0r	2r	2a	2cc	2ee
.	1c	4g	2cc	1ee
.	.	4f	.	.
.	.	2e	2.g	.
.	2c	2c	.	2ee
.	.	.	4g	.
=195	=195	=195	=195	=195
0r	2B	2d	2g	2dd
.	2A	2e	2a	2cc
.	2G#	2e	2b	2b
.	[2A	2e	2cc	2a
=196	=196	=196	=196	=196
1A	2A]	4e	2cc	2a
.	.	4d	.	.
.	1e	4c	2a	2cc
.	.	4B	.	.
2A	.	2A	2e	2cc
2G	2r	2B	2e	2b
=197	=197	=197	=197	=197
2F	0r	0c	2f	2a
2E	.	.	2g	2g
1F	.	.	1a	1f
=198	=198	=198	=198	=198
1c	2r	2r	1g	2e
.	1e	1g	.	1ee
1r	.	.	1r	.
.	2f	2a	.	2cc
=199	=199	=199	=199	=199
0r	2d	2f	0r	2dd
.	2e	2g	.	2b
.	2A	2a	.	1cc
.	[2a	2f	.	.
=200	=200	=200	=200	=200
1c	2a]	1e	1cc	2r
.	2g	.	.	2ee
2d	1f	1d	2a	2ff
2B	.	.	2b	2dd
=201	=201	=201	=201	=201
2c	2e	1c	2g	2ee
2F	1f	.	2.cc	2.a
1f	.	2r	.	.
.	.	.	4b	4b
.	2r	2f	2a	4cc
.	.	.	.	4dd
=202	=202	=202	=202	=202
2e	0r	2g	2g	2ee
1d	.	2.a	2f	2ff
.	.	.	1a	2dd
.	.	8g	.	.
.	.	8f	.	.
2c#	.	2e	.	[2ee
=203	=203	=203	=203	=203
1d	1r	1f	1a	4ee]
.	.	.	.	4dd
.	.	.	.	2dd
1r	1c	1e	2r	2ee
.	.	.	2g	2ee
=204	=204	=204	=204	=204
0r	2c	2r	2g	2ee
.	2c	2c	1a	2ee
.	1B	2d	.	1dd
.	.	2d	2g#	.
=205	=205	=205	=205	=205
2r	2.A	2f	2a	2.cc
1A	.	2e	1cc	.
.	4B	.	.	4dd
.	4c	4A	.	1ee
.	4d	4B	.	.
2A	2e	4c	2cc	.
.	.	4d	.	.
=206	=206	=206	=206	=206
2A	2c	2e	2cc	0r
1G	2d	2g	1b	.
.	2e	2g	.	.
[2F	[2f	2c	[2a	.
=207	=207	=207	=207	=207
4F]	2f]	2r	4a]	1cc
4G	.	.	4g	.
4A	2r	2a	2f	.
4B	.	.	.	.
2c	1r	2a	1e	2cc
2A	.	2a	.	2cc
=208	=208	=208	=208	=208
2B	0r	2g	2r	2dd
2c	.	2g	4cc	2ee
.	.	.	4b	.
1d	.	4f	4a	[1ff
.	.	4g	4g	.
.	.	4a	4f	.
.	.	4b	4g	.
=209	=209	=209	=209	=209
0r	1c	1cc	2a	2ff]
.	.	.	4g	4ee
.	.	.	4f	4dd
.	2c	2g	4e	2ee
.	.	.	4d	.
.	2c	[2a	2c	2ee
=210	=210	=210	=210	=210
1r	2B	2a]	2d	2dd
.	2B	2g#	2d	2dd
2r	2.A	1a	2e	2.cc
[2A	.	.	[2cc	.
.	4B	.	.	4dd
=211	=211	=211	=211	=211
2A]	4c	4A	2cc]	1ee
.	4d	4B	.	.
2A	2e	4c	2cc	.
.	.	4d	.	.
2A	2c	4e	2cc	1r
.	.	4f	.	.
2G	2d	[2g	2b	.
=212	=212	=212	=212	=212
2G	2e	2g]	2b	1r
2.F	1f	2.cc	2.a	.
.	.	.	.	1cc
4G	.	4b	4g	.
4A	2r	2a	2f	.
4B	.	.	.	.
=213	=213	=213	=213	=213
2c	0r	2g	4e	2.cc
.	.	.	8f	.
.	.	.	8g	.
2A	.	1f	2a	.
.	.	.	.	8b
.	.	.	.	8cc
2B	.	.	2g	2dd
2c	.	2e	2g	2cc
=214	=214	=214	=214	=214
1d	0r	2f	2f	1a
.	.	2d	2a	.
1r	.	2.a	2.cc	2r
.	.	.	.	2a
.	.	4a	4cc	.
=215	=215	=215	=215	=215
0r	0r	2a	2cc	2.ee
.	.	2g	2b	.
.	.	.	.	4ee
.	.	2a	2cc	2ee
.	.	2b	2b	2dd
=216	=216	=216	=216	=216
0r	0r	1cc	1a	2ee
.	.	.	.	2ee
.	.	2a	2d	1ff
.	.	[2cc	[2a	.
=217	=217	=217	=217	=217
0r	0r	2cc]	2a]	1ee
.	.	2b	2g	.
.	.	2a	2a	[1ee
.	.	2g	2b	.
=218	=218	=218	=218	=218
0r	0r	1a	1cc	2ee]
.	.	.	.	2cc
.	.	1g	1b	2dd
.	.	.	.	2ee
=219	=219	=219	=219	=219
0r	0r	2f	2a	2ff
.	.	2c	2cc	2ee
.	.	1d	4b	2dd
.	.	.	4a	.
.	.	.	[2a	2cc
=220	=220	=220	=220	=220
0r	1r	1e	2a]	1b
.	.	.	2g#	.
.	2r	2r	2a	1a
.	[2A	[2cc	[2a	.
=221	=221	=221	=221	=221
0r	2A]	2cc]	2a]	1ee
.	2c	2cc	2g	.
.	1d	2.a	1f	2dd
.	.	.	.	[2ff
.	.	4b	.	.
=222	=222	=222	=222	=222
1r	1c	1cc	1g	2ff]
.	.	.	.	2ee
1F	1f	2cc	1a	1ff
.	.	[2a	.	.
=223	=223	=223	=223	=223
2A	2e	2a]	1r	0r
1B-	2d	2f	.	.
.	2d	2g	2r	.
[2A	[2c	2a	[2a	.
=224	=224	=224	=224	=224
2A]	4c]	2.f	2a]	0r
.	4A	.	.	.
1d	1B-	.	2f	.
.	.	4e	.	.
.	.	2d	2g	.
2c	2A	2e	2a	.
=225	=225	=225	=225	=225
2B-	1d	2f	2a	0r
2B-	.	4e	2g	.
.	.	4d	.	.
2.A	2c	2e	2a	.
.	[2f	2c	2a	.
4F	.	.	.	.
=226	=226	=226	=226	=226
1G	2f]	1g	1b-	0r
.	2e	.	.	.
2F	2f	2c	2a	.
[2B-	2r	[2d	2f	.
=227	=227	=227	=227	=227
2B-]	0r	2d]	2g	2r
2A	.	2c#	1a	2ee
1d	.	4d	.	1ff
.	.	4e	.	.
.	.	4f	2d	.
.	.	4g	.	.
=228	=228	=228	=228	=228
2c#	0r	1a	2e	2ee
2d	.	.	2f	2dd
1r	.	1A	4e	2cc
.	.	.	4A	.
.	.	.	[2a	2a
=229	=229	=229	=229	=229
0r	1e	1r	2a]	2cc
.	.	.	2g#	2b
.	1f	2r	1a	4a
.	.	.	.	4b
.	.	2a	.	4cc
.	.	.	.	4dd
=230	=230	=230	=230	=230
1r	2e	1b	2r	2ee
.	2d	.	2f	2ff
2r	2c	1cc	2g	1ee
[2c	2A	.	2a	.
=231	=231	=231	=231	=231
2c]	2c	1r	1g	2r
1d	2B	.	.	2dd
.	1A	2r	1a	2ff
2c	.	2e	.	2ee
=232	=232	=232	=232	=232
2B-	0r	2g	2d	2dd
2A	.	1a	1f	2cc
2F	.	.	.	2a
2A	.	2A	4e	2cc
.	.	.	4d	.
=233	=233	=233	=233	=233
2G	1r	2B-	2e	2b-
1F	.	2c	2f	2a
.	2r	2.A	2f	2.cc
2r	[2A	.	[2a	.
.	.	4B	.	4dd
=234	=234	=234	=234	=234
0r	4A]	4c	2a]	2.ee
.	4B	4d	.	.
.	1c	4e	4g	.
.	.	4f	4f	4dd
.	.	[1g	2e	2cc
.	[2G	.	4d	4b
.	.	.	4c	4a
=235	=235	=235	=235	=235
1r	2G]	2g]	2d	2b
.	1c	2g	2e	2cc
2.F	.	1f	2c	2.a
.	[2A	.	[2cc	.
4G	.	.	.	4b
=236	=236	=236	=236	=236
1A	4A]	0e	4cc]	2.cc
.	4B	.	4b	.
.	4c	.	1a	.
.	4A	.	.	4dd
1E	1B	.	.	1ee
.	.	.	2g#	.
=237	=237	=237	=237	=237
0A	0A	0e	0a	0cc#
==	==	==	==	==
*-	*-	*-	*-	*-
!!!CDT: 1525/^1526/-1594/2/2
!!!OCY: Italia
!!!AGN: Mass (Canonic)
!!!AST: renaissance, vocal
!!!ASW: Antiphon
!!!PWK: Masses, Book 9
!!!RNB: Cadence finals: D
!!!YOR: Le Opere Complete, v. 25, p. 93
!!!YOO: Rome, Italy: Fratelli Scalera
!!!END: 1992//
!!!EED: John Miller
!!!YEC: Copyright 2000, John Miller
!!!YEN: United States of America
!!!YEM: Rights to all derivative electronic formats reserved.
!!!YEM: Refer to licensing agreement for further details.
!!!YEM: This file must be accompanied by the licensing agreement.
!!!YEM: A copy of the licensing agreement may be found at http://www.music-cog.ohio-state.edu/HumdrumDatabases/Palestrina/license.txt
!!!EMD: converted to Humdrum by Bret Aarden
